!!!COM: Gomółka, Mikołaj
!!!CDT: ~1535-after 1591
!!!OTL: Obrońcá ućiśnionych
!!!OTL@LAT: Exaudi Deus
!!!AGn: Motet; Psalm
!!!SCn: Gom2055
!!!SCn: Gom2055
!!!voices: 4
!!!CNT: Polish
!!!OCY: Poland
!!!LYR: Jan Kochanowski (1530-1584/08/22)
!!!GTL: Melodiae na Psałterz Polski
!!!EFL: 55/150
!!!PPR: Łazarz Andrysowicz
!!!PPP: Kraków
!!!PDT: 1580
!!!YEC: 2015 Marcin Konik
!!!ENC: Marcin Konik
!!!END: 2015/05/19
!!!EED: Marcin Konik
!!!EEV: 2015/05/19
!!!ONB: Translated from MusicXML and edited on 2015/03/06 by Marcin Konik
!!!CharacterEncoding: utf-8
!!muse2ps: i2I150v85,85,85,150Q16
**kern	**kern	**kern	**kern
*staff4	*staff3	*staff2	*staff1
*Ivox	*Ivox	*Ivox	*Ivox
*I"Bassus	*I"Tenor	*I"Altus	*I"Cantus
*I'B	*I'T	*I'A	*I'C
*clefF4	*clefC4	*clefC3	*clefC1
*k[b-]	*k[b-]	*k[b-]	*k[b-]
*M2/1	*M2/1	*M2/1	*M2/1
*met(C|)	*met(C|)	*met(C|)	*met(C|)
=1-	=1-	=1-	=1-
1D	2.A	1d	1a
.	4B	.	.
1AA	1c#	1e	1a
=2	=2	=2	=2
2D	2d	2f	2a
2B-	2d	2f	2b-
2G	2d	2g	2b-
2A	2c	2e	2a
=3	=3	=3	=3
2D	2d	2f	2a
1D	1f	1d	2.a
.	.	.	.
.	.	.	4b-
2AA	2e	2c	2cc
=4	=4	=4	=4
2BB-	2d	4d	2b-
.	.	4e	.
2FF	2c	4f	1a
.	.	4e	.
1GG	1B-	4d	.
.	.	4c	.
.	.	2d	2g
=5	=5	=5	=5
1D	1A	1d	1a
=:|:	=:|:	=:|:	=:|:
1AA	1c#	1e	1a
=6	=6	=6	=6
1D	1d	1f	1a
2D	2d	2f	2a
2E	2g	2c	2cc
=7	=7	=7	=7
4F	2f	2c	2cc
4G	.	.	.
2A	2e	2a	2cc#
2D	2d	2a	2dd
2D	2f	2a	2dd
=8	=8	=8	=8
2BB-	2f	2b-	2dd
2C	2e	4a	2cc
.	.	4g	.
2.D	2d	2f	2b-
.	2d	2f	2a
4E	.	.	.
=9	=9	=9	=9
2F	2c	2f	2a
4BB-	2d	2f	2b-
4C	.	.	.
4D	2d	2f	2a
4E	.	.	.
2F	2d	2f	2a
=10	=10	=10	=10
2G	1B-	2d	1g
2GG	.	2d	.
2D	2A	2d	2f#
2E-	2G	2c	2g
=11	=11	=11	=11
2D	2A	2d	2f
1C	1c	2.G	1e-
.	.	.	.
.	.	4A	.
2GG	2B-	4B-	4d
.	.	4c	4e
=12	=12	=12	=12
2D	2A	2d	2f#
2E-	2G	2c	1g
2C	1A	4e-	.
.	.	8d	.
.	.	8e-	.
2D	.	4d	2f#
.	.	4c	.
=13	=13	=13	=13
0GG	0G	0B	0g
==	==	==	==
*-	*-	*-	*-
